X: 20098
T: Jimmy Ward's
R: jig
M: 6/8
K: Dmajor
|:d3 def|edB dBA|d3 edB|dBA A3|
d3 def|edB def|g2 e fdB|AAA A3:|
|:g2 e fed|efe edB|g2 e fdB|BAB def|
g2 e fed|efe efg|age edB|dBA A3:|

